assets/img/home/bed-icon.svg

<?xml version="1.0" encoding="UTF-8"?>
<svg width="16px" height="11px" viewBox="0 0 16 11" version="1.1" xmlns="http://www.w3.org/2000/svg" xmlns:xlink="http://www.w3.org/1999/xlink">
    <!-- Generator: Sketch 52.4 (67378) - http://www.bohemiancoding.com/sketch -->
    <title>bed-icon</title>
    <desc>Created with Sketch.</desc>
    <g id="Pages" stroke="none" stroke-width="1" fill="none" fill-rule="evenodd">
        <g id="Home-Page_sm-Copy" transform="translate(-132.000000, -2227.000000)" fill="#FFFFFF" fill-rule="nonzero">
            <g id="Group-15" transform="translate(16.000000, 2221.000000)">
                <g id="Group-19" transform="translate(99.000000, 0.000000)">
                    <g id="bed-icon" transform="translate(17.000000, 6.000000)">
                        <path d="M3.07773107,0 C2.29493136,0 1.65651259,0.656621478 1.65651259,1.46170324 L1.65651259,4.12906551 C1.65651259,4.48544763 1.78637037,4.80836535 1.99369745,5.0624736 L1.09033616,5.0624736 C0.80664035,5.0624736 0.544542817,5.15136171 0.343487408,5.31204618 C0.142431946,5.47273066 0,5.71854195 0,5.99588169 L0,6.91850373 L0,8.48602088 L0,11 L16,11 L16,8.48602088 L16,6.91850373 L16,5.99588169 C16,5.71854195 15.8575683,5.47273066 15.6565125,5.31204618 C15.4554573,5.15136171 15.1933596,5.0624736 14.9096637,5.0624736 L14.0063027,5.0624736 C14.2136298,4.80836535 14.3434875,4.48544763 14.3434875,4.12906551 L14.3434875,1.46170324 C14.3434875,0.656621478 13.7050686,0 12.922269,0 L3.07773107,0 Z M3.07773107,0.55313072 L12.922269,0.55313072 C13.4163958,0.55313072 13.8056723,0.953486735 13.8056723,1.46170324 L13.8056723,4.12906551 C13.8056723,4.30722892 13.7556878,4.46968341 13.6722689,4.60874047 C13.6777815,4.56338375 13.685924,4.51940986 13.685924,4.472615 L13.685924,4.13122272 C13.685924,3.51636261 13.1955345,3.01306897 12.5976885,3.01306897 L8.85714232,3.01306897 C8.51630682,3.01306897 8.2144398,3.17983788 8.01470548,3.43438864 C7.81497062,3.17983788 7.51310413,3.01306897 7.17226864,3.01306897 L3.4306717,3.01306897 C2.83282598,3.01306897 2.34348687,3.51636261 2.34348687,4.13122272 L2.34348687,4.472615 C2.34348687,4.53793974 2.35179504,4.6003882 2.3623943,4.66272603 C2.25742338,4.51327011 2.19432707,4.33090291 2.19432707,4.12906551 L2.19432707,1.46170324 C2.19432707,0.953486735 2.58360352,0.55313072 3.07773042,0.55313072 L3.07773107,0.55313072 Z M3.43067224,3.56619969 L7.17226918,3.56619969 C7.4814521,3.56619969 7.72163872,3.81322787 7.72163872,4.13122272 L7.72163872,4.472615 C7.72163872,4.79066516 7.48145264,5.03763803 7.17226918,5.03763803 L3.43067224,5.03763803 C3.12148808,5.03763803 2.88130253,4.79066516 2.88130253,4.472615 L2.88130253,4.13122272 C2.88130253,3.81322787 3.12148808,3.56619969 3.43067224,3.56619969 Z M8.85714286,3.56619969 L12.597689,3.56619969 C12.9068735,3.56619969 13.1481094,3.81322787 13.1481094,4.13122272 L13.1481094,4.472615 C13.1481094,4.79066516 12.9068735,5.03763803 12.597689,5.03763803 L8.85714286,5.03763803 C8.54795886,5.03763803 8.30777331,4.79066516 8.30777331,4.472615 L8.30777331,4.13122272 C8.30777331,3.81322787 8.54795886,3.56619969 8.85714286,3.56619969 Z M1.09033616,5.61560432 L14.9096637,5.61560432 C15.0813042,5.61560432 15.2307894,5.6718024 15.3266807,5.74846632 C15.4225721,5.82507492 15.4621849,5.90937205 15.4621849,5.99588169 L15.4621849,6.91850373 L15.4621849,8.48602088 L15.4621849,10.4468693 L0.537815126,10.4468693 L0.537815126,8.48602088 L0.537815126,6.91850373 L0.537815126,5.99588169 C0.537815126,5.90937205 0.577427899,5.82507492 0.673319314,5.74846632 C0.769210568,5.6718024 0.918695637,5.61560432 1.09033616,5.61560432 Z" id="Shape"></path>
                    </g>
                </g>
            </g>
        </g>
    </g>
</svg>

<?xml version="1.0" encoding="UTF-8" standalone="no"?>
<svg xmlns="http://www.w3.org/2000/svg" height="11px" width="16px" version="1.1" xmlns:xlink="http://www.w3.org/1999/xlink" viewBox="0 0 16 11"><!-- Generator: Sketch 52.4 (67378) - http://www.bohemiancoding.com/sketch -->
 <title>bed-icon</title>
 <desc>Created with Sketch.</desc>
 <g id="Pages" fill-rule="evenodd" fill="none">
  <g id="Home-Page_sm-Copy" fill-rule="nonzero" fill="#fff" transform="translate(-132 -2227)">
   <g id="Group-15" transform="translate(16 2221)">
    <g id="Group-19" transform="translate(99)">
     <g id="bed-icon" transform="translate(17 6)">
      <path id="Shape" d="m3.0777 0c-0.7828 0-1.4212 0.65662-1.4212 1.4617v2.6674c0 0.3563 0.1299 0.6793 0.3372 0.9334h-0.9034c-0.28366 0-0.54576 0.0889-0.74681 0.2495-0.20106 0.1607-0.34349 0.4065-0.34349 0.6839v0.9226 1.5675 2.514h16v-2.514-1.5675-0.9226c0-0.2774-0.142-0.5232-0.343-0.6839-0.202-0.1606-0.464-0.2495-0.747-0.2495h-0.904c0.208-0.2541 0.337-0.5771 0.337-0.9334v-2.6674c0-0.80508-0.638-1.4617-1.421-1.4617h-9.8443zm0 0.55313h9.8443c0.494 0 0.884 0.40036 0.884 0.90857v2.6674c0 0.1781-0.05 0.3406-0.134 0.4796 0.006-0.0453 0.014-0.0893 0.014-0.1361v-0.3414c0-0.6148-0.49-1.1181-1.088-1.1181h-3.7409c-0.3408 0-0.6427 0.1667-0.8424 0.4213-0.1997-0.2546-0.5016-0.4213-0.8424-0.4213h-3.7416c-0.5979 0-1.0872 0.5033-1.0872 1.1181v0.3414c0 0.0653 0.0083 0.1278 0.0189 0.1901-0.105-0.1494-0.1681-0.3318-0.1681-0.5336v-2.6674c0-0.50821 0.3893-0.90857 0.8834-0.90857zm0.353 3.0131h3.7416c0.3092 0 0.5493 0.247 0.5493 0.565v0.3414c0 0.3181-0.2401 0.565-0.5493 0.565h-3.7416c-0.3092 0-0.5494-0.2469-0.5494-0.565v-0.3414c0-0.318 0.2402-0.565 0.5494-0.565zm5.4264 0h3.7409c0.309 0 0.55 0.247 0.55 0.565v0.3414c0 0.3181-0.241 0.565-0.55 0.565h-3.7409c-0.3091 0-0.5493-0.2469-0.5493-0.565v-0.3414c0-0.318 0.2402-0.565 0.5493-0.565zm-7.7668 2.0494h13.82c0.171 0 0.321 0.0562 0.417 0.1329 0.096 0.0766 0.135 0.1609 0.135 0.2474v0.9226 1.5675 1.961h-14.924l-0.00018-1.961v-1.5675-0.9226c0-0.0865 0.03961-0.1708 0.1355-0.2474 0.09589-0.0767 0.24538-0.1329 0.41698-0.1329z"/>
     </g>
    </g>
   </g>
  </g>
 </g>
</svg>
